X:1
T:Title
%%score { ( 1 3 ) | ( 2 4 ) }
L:1/8
M:4/4
K:C
V:1 treble nm="Grand Piano"
V:3 treble 
V:2 bass 
V:4 bass 
V:1
 z4 z2[Q:1/4=100] [CE][DF] | [EG][EG][CE][DF] [EG]2 [Gc][GB] | [Fd][Fc][GB][FA] [EG]2 [CE][DF] | %3
 [FA][EG][EG][CE] [Ec]2 [EG][CE] | [B,D]6 [B,D][CE] | [DF][DF][DF][^CE] [DF]2 [=CE][DF] | %6
 [EG][EG][EG][_E^F] [=EG]2 [Gc][GB] | [Fd][Fc][GB][FA] [EG]2 [CE][B,D] | C6 z2 | d4 e4 | %10
 d[CAc][CAc][CFA] [CEG]4 | [Ec]4 d4 | Bd[^Fd][Fe] [Gd]2 [Gc][Gd] | %13
 [Ge][Ge][Ge][Gd] [Gc]2 [Gc][GB] | [Ad][Ac][Ac][FA] [EG]2 [CE][DF] | %15
 [FA][EG][EG][Ec] [DB]2 [Ec][Fd] |[M:3/4] [Ec]6 |] %17
V:2
 z4 z2 [C,G,][C,G,] | [C,C][C,C][C,G,][C,G,] [C,C]2 [E,C][E,C] | %2
 [F,A,][F,A,][F,C][F,C] [C,C]2 [C,G,][C,G,] | [C,C][C,C][C,C][C,G,] [C,G,]2 [C,C][C,G,] | %4
 [G,,G,]6 [G,,G,][G,,G,] | [G,,G,][G,,G,][G,,G,][G,,G,] [G,,G,]2 [C,G,][C,G,] | %6
 [C,C][C,C][C,C][C,C] [C,C]2 [E,C][E,C] | [F,A,][F,A,][F,C][F,C] [G,C]2 [G,,G,][G,,F,] | %8
 [C,E,]6 z2 | [G,B,G]2 [G,B,]2 [CG]2 C2 | [F,A,F][K:bass]F,F,F, C,4 | z4 D4 | %12
 [G,D][G,B,G][K:bass][D,C][D,C] [G,B,]2 [E,C][D,B,] | [C,C][C,C][C,C][D,B,] [E,C]2 [E,C][E,C] | %14
 [F,C][F,C][F,C][F,C] [C,C]2 [C,G,][C,G,] | [C,C][C,C][C,C][C,G,] [G,,G,]2 [G,,G,][G,,G,] | %16
[M:3/4] [C,G,]6 |] %17
V:3
 x8 | x8 | x8 | x8 | x8 | x8 | x8 | x8 | x8 | z2 G2 z2 G2 | x8 | C2 C2 z2 ^F,2 | x8 | x8 | x8 | %15
 x8 |[M:3/4] x6 |] %17
V:4
 x8 | x8 | x8 | x8 | x8 | x8 | x8 | x8 | x8 | x8 | x[K:bass] x7 | A,2 G,2 [^F,A,]2 D,2 | %12
 x2[K:bass] x6 | x8 | x8 | x8 |[M:3/4] x6 |] %17

